X:1
T:Coming Today
T:John Robson Sweney
T:Coming Today
T:Public Domain
T:Public Domain
C:John Robson Sweney
Z:Public Domain
%%score ( 1 2 ) ( 3 4 )
L:1/8
M:6/8
K:C
V:1 treble 
V:2 treble 
V:3 bass 
V:4 bass 
V:1
 [CE][CD]C [CE] [EG]2 | [FA] [Fc]2 [EG] [CE]2 | [CE][CD]C [CE] [EG]2 | [FA][EG][CE] [B,D]3 | %4
w: 1.~Out on the de- sert,|look- ing, look- ing,|Sin- ner, ’tis Je- sus|ing for thee; Ten-|
w: 2.~Still He is wait- ing,|wait- ing, wait- ing,|O, what com- pass- ion|in His eye, Hear|
w: 3.~Lov- ing- ly plead- ing,|plead- ing, plead- ing,|Mer- cy, though slight- ed,|with thee yet; Thou|
 [CE][CD]C [CE] [EG]2 | [FA] [Fc]2 [EG] [CE]2 | [EG][Ec][Fd] [Ge][Ec][CE] | [B,G][B,F][B,D] C3 || %8
w: der- ly call- ing, call-|ing, call- ing, Hi-|ther, thou lost one, O come|un- to Me. *|
w: Him re- peat- ing, gent-|ly, gent- ly, Come|to thy Sav- ior, O, why|wilt thou die? *|
w: canst be hap- py, hap-|py, hap- py, Come,|ere thy life- star for- ev-|er shall set. *|
"^Refrain" [EG][Ec][Ec] [Ec] [DB]2 | [FG][Fd][Fd] [Fd] [Ec]2 | [Ec][Ec][Ec] [Ec][EB]A | %11
w: |||
w: |||
w: |||
 [^Ge]>[Ge][Ge] [Ge]3 | [Fe][Fd][Fe] [Fd] [Ec]2 | [Fd][Fc][FA] [FA] [EG]2 | %14
w: |||
w: |||
w: |||
 [CE][DF][EG] [FA] [Fc]2 | [DB][FA][FB] [Ec]3 |] %16
w: ||
w: ||
w: ||
V:2
 x6 | x6 | x2 C x3 | x6 | x6 | x6 | x6 | x3 C3 || x6 | x6 | x5 A | x6 | x6 | x6 | x6 | x6 |] %16
w: ||look-||||||||||||||
w: ||beams||||||||||||||
w: ||bears||||||||||||||
V:3
 [C,G,][C,G,][C,E,] [C,G,] [C,C]2 | [F,C] [A,C]2 C [C,G,]2 | [C,G,][C,F,][C,E,] [C,G,] [C,C]2 | %3
w: ~ ~ ~ ~ ~|~ ~ ~ ~|~ ~ ~ ~ ~|
 [C,C][C,C][C,G,] [G,,G,]3 | [C,G,][C,F,][C,E,] [C,G,] [C,C]2 | [F,C] [F,A,]2 [C,C] [C,G,]2 | %6
w: ~ ~ ~ ~|~ ~ ~ ~ ~|~ ~ ~ ~|
 [C,C][C,G,][C,G,] [C,G,][C,G,][C,G,] | [G,,G,][G,,G,][G,,F,] [C,E,]3 || [C,C][C,G,][E,G,] G, G,2 | %9
w: ~ ~ ~ ~ ~ ~|~ ~ ~ Je-|sus is look- ing, Je-|
 [G,,G,][G,,G,][G,,G,] [C,G,] [C,G,]2 | A,A,A, A,[A,D][A,C] | [E,B,]>[E,B,][E,B,] [E,B,]3 | %12
w: call- ing, Why dost thou|ling- er, why tar- ry a-|quick- ly, say to|
 [G,B,][G,B,][G,B,] [C,C] [C,C]2 | [F,A,][F,A,][F,C] [C,C] [C,C]2 | %14
w: Him glad- ly, Lord I|am com- ing, com- ing|
 [C,G,][C,G,][C,C] [F,C] [F,A,]2 | G,G,[G,,G,] [C,G,]3 |] %16
w: to- day. * * *||
V:4
 x6 | x3 C x2 | x6 | x6 | x6 | x6 | x6 | x6 || x3 G, G,2 | x6 | A,A,A, A, x2 | x6 | x6 | x6 | x6 | %15
w: |~|||||||sus is||way? Run to Him|||||
 G,G, x4 |] %16
w: |

